X:3
T:Waltz. RHu.003
S:R.Hughes MS,1823,Whitchurch,Shrops.
R:Waltz
A:Whitchurch, Shropshire
Z:Neil Brookes 2006
M:3/4
L:1/8
Q:3/4=50
K:F
A>F|F>F A>A c>c|(a2f2) f>f|(g2b2) e>e|(f2a2) A>G|!
F>F A>A c>c|(a2f2) f>f|e>g c’2e2|f4:|!
|:f>f|e2g2f>e|f2a2 g>f|g2b2 a>g|a2c’2A>G|!
F>F A>A c>c|(a2f2) f>f|e>g c’2e2|f4:|

